static/images/icons/envelope.svg

<svg xmlns="http://www.w3.org/2000/svg" width="16" height="16" fill="currentColor" class="bi bi-envelope" viewBox="0 0 16 16">
  <path d="M0 4a2 2 0 0 1 2-2h12a2 2 0 0 1 2 2v8a2 2 0 0 1-2 2H2a2 2 0 0 1-2-2zm2-1a1 1 0 0 0-1 1v.217l7 4.2 7-4.2V4a1 1 0 0 0-1-1zm13 2.383-4.708 2.825L15 11.105zm-.034 6.876-5.64-3.471L8 9.583l-1.326-.795-5.64 3.47A1 1 0 0 0 2 13h12a1 1 0 0 0 .966-.741M1 11.105l4.708-2.897L1 5.383z"/>
</svg>

<?xml version="1.0" encoding="UTF-8" standalone="no"?>
<!DOCTYPE svg PUBLIC "-//W3C//DTD SVG 1.1//EN" "http://www.w3.org/Graphics/SVG/1.1/DTD/svg11.dtd">
<svg width="100%" height="100%" viewBox="0 0 16 16" version="1.1" xmlns="http://www.w3.org/2000/svg" xmlns:xlink="http://www.w3.org/1999/xlink" xml:space="preserve" xmlns:serif="http://www.serif.com/" style="fill-rule:evenodd;clip-rule:evenodd;stroke-linejoin:round;stroke-miterlimit:2;">
    <path d="M0,4C-0,2.903 0.903,2 2,2L14,2C15.097,2 16,2.903 16,4L16,12C16,13.097 15.097,14 14,14L2,14C0.903,14 0,13.097 0,12L0,4ZM2,3C1.451,3 1,3.451 1,4L1,4.217L8,8.417L15,4.217L15,4C15,3.451 14.549,3 14,3L2,3ZM15,5.383L8,9.583L1,5.383C1,5.383 0.991,12.22 0.995,12.22C1.111,12.657 1.549,13 2,13L14,13C14.451,13 14.849,12.695 14.966,12.259L15,5.383Z" style="fill-rule:nonzero;"/>
</svg>
